X:1
T:Title
%%score ( 1 2 ) { 3 | 4 }
L:1/8
Q:1/4=97
M:3/4
K:D
V:1 treble nm="Grand Piano, Soprano"
V:2 treble 
V:3 bass nm="Choir Pad, I Will Trust, Grattan Guiness"
V:4 bass 
V:1
 [DF][EG] [FA]3 [Fd] | [=Fc][FB] [^FA]4 | [DF][DG] E2- [B,E]2 | [CE][CF] D4 | [DF][EG] [FA]3 [Fd] | %5
w: By~Henry~Grattan~Guinness * * *|||||
 [=Fc][FB] [^FA]4 | [DF][DG] E2- [B,E]2 | [CE][CF] D4 | [A,C][B,D] [CE]3 [EA] | [EB][Ec] [Dd]4 | %10
w: |||||
 [Dd][Ec] [FB]3 [FB] | [=Fc][FB] [Ee]4 | [DF][EG] [FA]3 [Fd] | [=Fc][FB] [^FA]4 | %14
w: ||||
 [DF][DG] E2- [B,E]2 | [CE][CF] D4 |[M:4/4] [DF][EG] [FA]6 | [Fd][GB] [FA]6 | %18
w: ||||
 F[EG]A-[EA-] [F-A]/F/[DA] [DB][FA] | [EG][DF] [CE]6 | [DF][EG] [FA]6 | [FB][Fc] [Fd]6 | %22
w: ||||
 z2 .A2 d2 z2 | z8 | z8 |] %25
w: |||
V:2
 x6 | x6 | z2 D2 z2 | x6 | x6 | x6 | z2 D2 z2 | x6 | x6 | x6 | x6 | x6 | x6 | x6 | z2 D2 z2 | x6 | %16
[M:4/4] x8 | x8 | z2 .D2 z4 | x8 | x8 | x8 | [Gd][Ge]f-[Df] EF [Ge]2- | [Ge][Fd] [Fd]6- | %24
 [Fd]2 z2 z4 |] %25
V:3
 A,A, A,3 A, | ^G,G, A,4 | A,A, G,2 B,2 | G,A, F,4 | A,A, A,3 A, | ^G,G, A,4 | A,B, G,2 B,2 | %7
 G,A, F,4 | E,3 E, A,A, | ^G,A, A,4 | A,A, A,3 A, | ^G,G, A,4 | A,A, A,3 A, | ^G,G, A,4 | %14
 A,A, G,2 B,2 | G,A, F,4 |[M:4/4] z4 A,A, A,2 | z4 A,A, A,2 | A,G,F,G, A,F, G,2 | B,2 C4- CB, | %20
 A,A, A,2 A,A, D2 | B,^A, B,2 B,[K:treble]C D2 | DD D2 D2[K:bass] C2- | CA, A,6- | A,2 z2 z4 |] %25
V:4
 D,D, D,3 D, | D,D, D,4 | D,D, B,,2 G,,2 | A,,A,, D,4 | D,D, D,3 D, | D,D, D,4 | D,D, B,,2 G,,2 | %7
 A,,A,, D,4 | A,,A,, A,,3 C, | .E,2 F,4 | F,E, D,3 D, | D,D, C,3 G, | F,E, D,3 D, | D,D, D,4 | %14
 D,D, B,,2 G,,2 | A,,A,, D,4 |[M:4/4] z4 D,D, D,2 | z4 D,D, D,2 | D,D, D,2- D,/ z/ D, z2 | %19
 E,2 A,2 A,B,A,G, | F,E, D,2 D,D, D,2 | D,F, z2 z B, B,2 | B,B, A,2 A,2 A,,2- | A,,D, D,6- | %24
 D,2 z2 z4 |] %25

